X:4368
L:1/8
M:3/4
K:Gmin
 G2 GG GG | B2 A2 G2 | A2 F2 D2 | G2 F2 D2 | G2 GG GG | B2 A2 GF | D2 DF AF | G6 :| A3 G FA | 
 d2 c2 d2 | A3 G FA | d2 c2 d2 | G2 F2 D2 | B2 A2 GF | D2 DF AF | G6 || A3 G FA | d2 c2 d2 | 
 A3 G FA | c2 A2 c2 | A2 F2 D2 | B2 A2 GF | D2 DF AF | G6 ||

